austria/municipalities/41414.svg

<?xml version="1.0" encoding="UTF-8"?>
<!DOCTYPE svg PUBLIC "-//W3C//DTD SVG 1.1//EN" "http://www.w3.org/Graphics/SVG/1.1/DTD/svg11.dtd">
<svg xmlns="http://www.w3.org/2000/svg" version="1.1" width="166px" height="207px" style="shape-rendering:geometricPrecision; text-rendering:geometricPrecision; image-rendering:optimizeQuality; fill-rule:evenodd; clip-rule:evenodd" xmlns:xlink="http://www.w3.org/1999/xlink">
<g><path style="opacity:1" fill="#090909" d="M -0.5,-0.5 C 54.8333,-0.5 110.167,-0.5 165.5,-0.5C 165.5,43.8333 165.5,88.1667 165.5,132.5C 157.932,172.068 134.599,196.735 95.5,206.5C 86.8333,206.5 78.1667,206.5 69.5,206.5C 30.0061,196.67 6.67281,171.67 -0.5,131.5C -0.5,87.5 -0.5,43.5 -0.5,-0.5 Z"/></g>
<g><path style="opacity:1" fill="#fefffe" d="M 96.5,105.5 C 104.478,107.165 112.478,108.832 120.5,110.5C 122.924,116.933 126.591,122.6 131.5,127.5C 132.298,127.043 132.631,126.376 132.5,125.5C 133.815,126.476 135.148,127.476 136.5,128.5C 137.386,127.675 137.719,126.675 137.5,125.5C 138.815,126.476 140.148,127.476 141.5,128.5C 142.386,127.675 142.719,126.675 142.5,125.5C 143.374,127.69 145.041,128.69 147.5,128.5C 147.5,127.5 147.5,126.5 147.5,125.5C 148.985,126.935 150.318,126.768 151.5,125C 149.293,121.46 146.46,118.627 143,116.5C 142.5,116.667 142,116.833 141.5,117C 142.252,117.671 142.586,118.504 142.5,119.5C 140.738,118.738 139.738,117.404 139.5,115.5C 144.167,115.5 148.833,115.5 153.5,115.5C 152.956,111.254 150.956,107.754 147.5,105C 137.025,97.3586 126.691,89.5253 116.5,81.5C 109.673,71.3595 102.006,61.8595 93.5,53C 86.6314,49.2121 79.6314,45.7121 72.5,42.5C 70.0971,38.0322 67.4304,33.6988 64.5,29.5C 57.9092,24.8411 50.5759,23.3411 42.5,25C 38.2737,25.5601 35.607,27.8934 34.5,32C 25.5979,33.4831 16.9312,35.8164 8.5,39C 20.4316,40.1543 32.0983,42.4877 43.5,46C 45.1817,48.6901 46.6817,51.5234 48,54.5C 49.013,65.6154 51.6796,76.2821 56,86.5C 59.4689,89.9847 63.6356,91.9847 68.5,92.5C 68.8839,96.6039 70.3839,100.271 73,103.5C 74.3644,112.765 72.1977,121.099 66.5,128.5C 62.8469,130.942 58.8469,132.608 54.5,133.5C 52.4691,136.532 52.3024,139.532 54,142.5C 54.2189,141.062 54.7189,139.729 55.5,138.5C 55.8333,138.833 56.1667,139.167 56.5,139.5C 55.1667,140.833 55.1667,142.167 56.5,143.5C 54.4728,146.221 52.9728,149.221 52,152.5C 42.5487,137.311 32.2154,136.644 21,150.5C 18.0282,156.088 16.6949,162.088 17,168.5C 10.4455,158.051 6.11213,146.717 4,134.5C 3.50001,90.8346 3.33334,47.1679 3.5,3.5C 56.1667,3.5 108.833,3.5 161.5,3.5C 161.667,47.8346 161.5,92.1679 161,136.5C 158.278,148.674 153.611,160.008 147,170.5C 149.12,161.192 146.953,153.026 140.5,146C 128.419,139.109 119.586,141.942 114,154.5C 112.848,148.36 110.182,143.026 106,138.5C 105.667,136.5 105.333,134.5 105,132.5C 101.982,131.972 99.1488,130.972 96.5,129.5C 95.5044,125.446 95.8377,121.446 97.5,117.5C 98.914,118.624 100.414,119.624 102,120.5C 102.518,116.449 102.184,112.449 101,108.5C 99.3484,107.601 97.8484,106.601 96.5,105.5 Z"/></g>
<g><path style="opacity:1" fill="#fefffe" d="M 47.5,28.5 C 52.562,31.197 52.7287,34.197 48,37.5C 46.9887,36.6634 45.8221,36.33 44.5,36.5C 43.2085,33.0672 44.2085,30.4005 47.5,28.5 Z"/></g>
<g><path style="opacity:1" fill="#000000" d="M 46.5,31.5 C 51.8333,32.5 51.8333,33.5 46.5,34.5C 46.5,33.5 46.5,32.5 46.5,31.5 Z"/></g>
<g><path style="opacity:1" fill="#fefffe" d="M 62.5,55.5 C 62.8425,53.7748 63.8425,53.2748 65.5,54C 64.4734,54.5133 63.4734,55.0133 62.5,55.5 Z"/></g>
<g><path style="opacity:1" fill="#fefffe" d="M 62.5,55.5 C 62.5386,56.7562 62.0386,57.7562 61,58.5C 60.4153,57.0024 60.9153,56.0024 62.5,55.5 Z"/></g>
<g><path style="opacity:1" fill="#fefffe" d="M 65.5,61.5 C 66.905,63.2251 67.405,65.2251 67,67.5C 65.872,65.6547 65.372,63.6547 65.5,61.5 Z"/></g>
<g><path style="opacity:1" fill="#fefffe" d="M 60.5,62.5 C 64.5036,72.0085 71.1703,79.1751 80.5,84C 71.5985,81.1115 65.0985,75.2781 61,66.5C 60.51,65.2068 60.3433,63.8734 60.5,62.5 Z"/></g>
<g><path style="opacity:1" fill="#fefffe" d="M 71.5,63.5 C 72.2891,63.7828 72.9558,64.2828 73.5,65C 72.184,65.5281 71.5173,65.0281 71.5,63.5 Z"/></g>
<g><path style="opacity:1" fill="#fefffe" d="M 80.5,65.5 C 81.6266,66.1217 82.6266,66.955 83.5,68C 81.5106,68.5192 80.5106,67.6859 80.5,65.5 Z"/></g>
<g><path style="opacity:1" fill="#fefffe" d="M 81.5,74.5 C 82.4971,73.2875 83.4971,73.4542 84.5,75C 83.4232,75.4696 82.4232,75.3029 81.5,74.5 Z"/></g>
<g><path style="opacity:1" fill="#fefffe" d="M 75.5,76.5 C 73.9719,76.4827 73.4719,75.816 74,74.5C 74.7172,75.0442 75.2172,75.7109 75.5,76.5 Z"/></g>
<g><path style="opacity:1" fill="#fefffe" d="M 75.5,76.5 C 76.7562,76.4614 77.7562,76.9614 78.5,78C 77.0024,78.5847 76.0024,78.0847 75.5,76.5 Z"/></g>
<g><path style="opacity:1" fill="#fefffe" d="M 82.5,91.5 C 83.4767,94.2869 83.81,97.2869 83.5,100.5C 84.9305,100.421 86.2638,100.754 87.5,101.5C 88.6526,106.639 90.9859,111.139 94.5,115C 94.0047,118.955 92.6714,122.622 90.5,126C 86.7059,127.72 82.8725,127.886 79,126.5C 77.2942,127.308 76.4609,128.641 76.5,130.5C 74.3352,130.884 72.6685,130.217 71.5,128.5C 75.3383,122.835 78.505,116.835 81,110.5C 82.3333,111.167 83.3333,112.167 84,113.5C 83.2419,106.256 82.7419,98.9225 82.5,91.5 Z"/></g>
<g><path style="opacity:1" fill="#fefffe" d="M 103.5,94.5 C 108.511,94.3341 113.511,94.5007 118.5,95C 110.832,95.7626 103.165,96.0959 95.5,96C 98.3647,95.8171 101.031,95.3171 103.5,94.5 Z"/></g>
<g><path style="opacity:1" fill="#fefffe" d="M 133.5,97.5 C 134.043,97.56 134.376,97.8933 134.5,98.5C 132.579,99.641 130.579,99.8077 128.5,99C 130.382,98.8019 132.048,98.3019 133.5,97.5 Z"/></g>
<g><path style="opacity:1" fill="#fefffe" d="M 114.5,103.5 C 118.556,102.147 122.556,102.647 126.5,105C 122.608,104.217 118.608,103.717 114.5,103.5 Z"/></g>
<g><path style="opacity:1" fill="#fefffe" d="M 96.5,105.5 C 94.6916,105.509 93.0249,105.009 91.5,104C 93.5348,103.401 95.2015,103.901 96.5,105.5 Z"/></g>
<g><path style="opacity:1" fill="#fefffe" d="M 142.5,105.5 C 143.404,106.209 143.737,107.209 143.5,108.5C 139.818,108.665 136.152,108.499 132.5,108C 136.311,108.083 139.645,107.25 142.5,105.5 Z"/></g>
<g><path style="opacity:1" fill="#fefffe" d="M 130.5,113.5 C 128.517,113.157 127.183,113.824 126.5,115.5C 125.573,113.424 123.907,112.257 121.5,112C 124.772,111.424 127.772,111.924 130.5,113.5 Z"/></g>
<g><path style="opacity:1" fill="#000000" d="M 130.5,113.5 C 130.427,115.027 131.094,116.027 132.5,116.5C 132.66,118.153 133.326,119.486 134.5,120.5C 134.427,122.027 135.094,123.027 136.5,123.5C 136.328,124.492 136.662,125.158 137.5,125.5C 137.719,126.675 137.386,127.675 136.5,128.5C 135.148,127.476 133.815,126.476 132.5,125.5C 132.34,123.847 131.674,122.514 130.5,121.5C 130.573,119.973 129.906,118.973 128.5,118.5C 128.573,116.973 127.906,115.973 126.5,115.5C 127.183,113.824 128.517,113.157 130.5,113.5 Z"/></g>
<g><path style="opacity:1" fill="#fefffe" d="M 130.5,113.5 C 133.781,113.42 136.781,114.087 139.5,115.5C 138.448,115.351 137.448,115.517 136.5,116C 138.007,116.837 138.507,118.004 138,119.5C 136.553,117.597 134.886,115.93 133,114.5C 132.536,115.094 132.369,115.761 132.5,116.5C 131.094,116.027 130.427,115.027 130.5,113.5 Z"/></g>
<g><path style="opacity:1" fill="#fefffe" d="M 126.5,115.5 C 127.906,115.973 128.573,116.973 128.5,118.5C 127.094,118.027 126.427,117.027 126.5,115.5 Z"/></g>
<g><path style="opacity:1" fill="#191919" d="M 139.5,115.5 C 139.738,117.404 140.738,118.738 142.5,119.5C 142.5,120.833 143.167,121.5 144.5,121.5C 144.738,123.404 145.738,124.738 147.5,125.5C 147.5,126.5 147.5,127.5 147.5,128.5C 145.041,128.69 143.374,127.69 142.5,125.5C 142.719,126.675 142.386,127.675 141.5,128.5C 140.148,127.476 138.815,126.476 137.5,125.5C 136.662,125.158 136.328,124.492 136.5,123.5C 136.573,121.973 135.906,120.973 134.5,120.5C 133.326,119.486 132.66,118.153 132.5,116.5C 132.369,115.761 132.536,115.094 133,114.5C 134.886,115.93 136.553,117.597 138,119.5C 138.507,118.004 138.007,116.837 136.5,116C 137.448,115.517 138.448,115.351 139.5,115.5 Z"/></g>
<g><path style="opacity:1" fill="#000000" d="M 147.5,125.5 C 147.262,123.596 146.262,122.262 144.5,121.5C 144.167,120.5 143.5,119.833 142.5,119.5C 142.586,118.504 142.252,117.671 141.5,117C 142,116.833 142.5,116.667 143,116.5C 146.46,118.627 149.293,121.46 151.5,125C 150.318,126.768 148.985,126.935 147.5,125.5 Z"/></g>
<g><path style="opacity:1" fill="#fefffe" d="M 128.5,118.5 C 129.906,118.973 130.573,119.973 130.5,121.5C 129.094,121.027 128.427,120.027 128.5,118.5 Z"/></g>
<g><path style="opacity:1" fill="#fefffe" d="M 142.5,119.5 C 143.5,119.833 144.167,120.5 144.5,121.5C 143.167,121.5 142.5,120.833 142.5,119.5 Z"/></g>
<g><path style="opacity:1" fill="#fefffe" d="M 134.5,120.5 C 135.906,120.973 136.573,121.973 136.5,123.5C 135.094,123.027 134.427,122.027 134.5,120.5 Z"/></g>
<g><path style="opacity:1" fill="#fefffe" d="M 144.5,121.5 C 146.262,122.262 147.262,123.596 147.5,125.5C 145.738,124.738 144.738,123.404 144.5,121.5 Z"/></g>
<g><path style="opacity:1" fill="#fefffe" d="M 142.5,125.5 C 140.915,124.998 140.415,123.998 141,122.5C 142.039,123.244 142.539,124.244 142.5,125.5 Z"/></g>
<g><path style="opacity:1" fill="#fefffe" d="M -0.5,131.5 C 6.67281,171.67 30.0061,196.67 69.5,206.5C 46.1667,206.5 22.8333,206.5 -0.5,206.5C -0.5,181.5 -0.5,156.5 -0.5,131.5 Z"/></g>
<g><path style="opacity:1" fill="#006532" d="M 81.5,135.5 C 80.833,137.819 80.6664,140.153 81,142.5C 81.4186,141.328 82.0853,140.328 83,139.5C 84.3561,140.38 85.8561,140.714 87.5,140.5C 87.4736,135.86 89.8069,133.526 94.5,133.5C 95.938,133.719 97.2713,134.219 98.5,135C 99.3758,137.146 100.709,138.979 102.5,140.5C 103.5,139.167 104.5,139.167 105.5,140.5C 109.989,147.435 112.489,155.102 113,163.5C 114.09,155.827 117.59,149.66 123.5,145C 133.129,143.064 139.962,146.564 144,155.5C 144.667,161.5 144.667,167.5 144,173.5C 119.615,201.057 89.7815,209.224 54.5,198C 40.8062,192.56 29.3062,184.06 20,172.5C 16.6903,161.345 19.5236,152.178 28.5,145C 40.3064,142.326 48.1398,146.826 52,158.5C 53.6292,152.656 55.6292,146.989 58,141.5C 61.1103,140.327 61.277,140.827 58.5,143C 59.7014,143.903 60.5348,145.069 61,146.5C 61.4828,145.552 61.6495,144.552 61.5,143.5C 66.194,143.637 68.3607,141.303 68,136.5C 70.1684,134.545 72.5017,133.879 75,134.5C 75.9147,133.672 76.5814,132.672 77,131.5C 77.2912,133.783 76.7912,135.95 75.5,138C 75.6301,139.059 76.1301,139.892 77,140.5C 77.3333,139.167 77.6667,137.833 78,136.5C 78.414,136.957 78.914,137.291 79.5,137.5C 80.1818,136.757 80.8485,136.091 81.5,135.5 Z"/></g>
<g><path style="opacity:1" fill="#006632" d="M 81.5,135.5 C 82.6248,132.872 84.6248,132.039 87.5,133C 85.3594,133.573 83.3594,134.406 81.5,135.5 Z"/></g>
<g><path style="opacity:1" fill="#fefffe" d="M 165.5,132.5 C 165.5,157.167 165.5,181.833 165.5,206.5C 142.167,206.5 118.833,206.5 95.5,206.5C 134.599,196.735 157.932,172.068 165.5,132.5 Z"/></g>
</svg>

<svg xmlns="http://www.w3.org/2000/svg" width="166" height="207" style="shape-rendering:geometricPrecision;text-rendering:geometricPrecision;image-rendering:optimizeQuality;fill-rule:evenodd;clip-rule:evenodd"><path style="opacity:1" fill="#090909" d="M-.5-.5h166v133c-7.568 39.568-30.901 64.235-70 74h-26c-39.494-9.83-62.827-34.83-70-75V-.5z"/><path style="opacity:1" fill="#fefffe" d="M96.5 105.5c7.978 1.665 15.978 3.332 24 5 2.424 6.433 6.091 12.1 11 17 .798-.457 1.131-1.124 1-2 1.315.976 2.648 1.976 4 3 .886-.825 1.219-1.825 1-3 1.315.976 2.648 1.976 4 3 .886-.825 1.219-1.825 1-3 .874 2.19 2.541 3.19 5 3v-3c1.485 1.435 2.818 1.268 4-.5-2.207-3.54-5.04-6.373-8.5-8.5l-1.5.5c.752.671 1.086 1.504 1 2.5-1.762-.762-2.762-2.096-3-4h14c-.544-4.246-2.544-7.746-6-10.5a1056.465 1056.465 0 0 1-31-23.5 212.174 212.174 0 0 0-23-28.5 290.614 290.614 0 0 0-21-10.5 131.697 131.697 0 0 0-8-13c-6.59-4.659-13.924-6.159-22-4.5-4.226.56-6.893 2.893-8 7a137.295 137.295 0 0 0-26 7 176.216 176.216 0 0 1 35 7 67.816 67.816 0 0 1 4.5 8.5c1.013 11.115 3.68 21.782 8 32 3.469 3.485 7.636 5.485 12.5 6 .384 4.104 1.884 7.771 4.5 11 1.364 9.265-.802 17.599-6.5 25a33.502 33.502 0 0 1-12 5c-2.03 3.032-2.198 6.032-.5 9a10.255 10.255 0 0 1 1.5-4l1 1c-1.333 1.333-1.333 2.667 0 4a28.522 28.522 0 0 0-4.5 9c-9.451-15.189-19.785-15.856-31-2-2.972 5.588-4.305 11.588-4 18-6.555-10.449-10.888-21.783-13-34-.5-43.665-.667-87.332-.5-131h158c.167 44.335 0 88.668-.5 133-2.722 12.174-7.389 23.508-14 34 2.12-9.308-.047-17.474-6.5-24.5-12.081-6.891-20.914-4.058-26.5 8.5-1.152-6.14-3.818-11.474-8-16l-1-6a26.924 26.924 0 0 1-8.5-3c-.996-4.054-.662-8.054 1-12a32.367 32.367 0 0 0 4.5 3c.518-4.051.184-8.051-1-12a29.048 29.048 0 0 1-4.5-3z"/><path style="opacity:1" fill="#fefffe" d="M47.5 28.5c5.062 2.697 5.229 5.697.5 9-1.011-.837-2.178-1.17-3.5-1-1.291-3.433-.291-6.1 3-8z"/><path style="opacity:1" d="M46.5 31.5c5.333 1 5.333 2 0 3v-3z"/><path style="opacity:1" fill="#fefffe" d="M62.5 55.5c.343-1.725 1.343-2.225 3-1.5l-3 1.5zM62.5 55.5c.039 1.256-.461 2.256-1.5 3-.585-1.498-.085-2.498 1.5-3zM65.5 61.5c1.405 1.725 1.905 3.725 1.5 6a10.1 10.1 0 0 1-1.5-6zM60.5 62.5c4.004 9.508 10.67 16.675 20 21.5-8.901-2.888-15.401-8.722-19.5-17.5a8.434 8.434 0 0 1-.5-4zM71.5 63.5c.79.283 1.456.783 2 1.5-1.316.528-1.983.028-2-1.5zM80.5 65.5a10.521 10.521 0 0 1 3 2.5c-1.99.52-2.99-.314-3-2.5zM81.5 74.5c.997-1.213 1.997-1.046 3 .5-1.077.47-2.077.303-3-.5zM75.5 76.5c-1.528-.017-2.028-.684-1.5-2 .717.544 1.217 1.21 1.5 2zM75.5 76.5c1.256-.039 2.256.461 3 1.5-1.498.585-2.498.085-3-1.5zM82.5 91.5c.977 2.787 1.31 5.787 1 9a6.845 6.845 0 0 1 4 1c1.153 5.139 3.486 9.639 7 13.5-.495 3.955-1.829 7.622-4 11-3.794 1.72-7.627 1.886-11.5.5-1.706.808-2.54 2.141-2.5 4-2.165.384-3.832-.283-5-2a92.292 92.292 0 0 0 9.5-18 6.544 6.544 0 0 1 3 3 307.565 307.565 0 0 1-1.5-22zM103.5 94.5c5.011-.166 10.011 0 15 .5a206.171 206.171 0 0 1-23 1c2.865-.183 5.531-.683 8-1.5zM133.5 97.5c.543.06.876.393 1 1-1.921 1.141-3.921 1.308-6 .5 1.882-.198 3.548-.698 5-1.5zM114.5 103.5c4.056-1.353 8.056-.853 12 1.5a82.953 82.953 0 0 0-12-1.5zM96.5 105.5c-1.808.009-3.475-.491-5-1.5 2.035-.599 3.701-.099 5 1.5zM142.5 105.5c.904.709 1.237 1.709 1 3a60.931 60.931 0 0 1-11-.5c3.811.083 7.145-.75 10-2.5zM130.5 113.5c-1.983-.343-3.317.324-4 2-.927-2.076-2.593-3.243-5-3.5 3.272-.576 6.272-.076 9 1.5z"/><path style="opacity:1" d="M130.5 113.5c-.073 1.527.594 2.527 2 3 .16 1.653.826 2.986 2 4-.073 1.527.594 2.527 2 3-.172.992.162 1.658 1 2 .219 1.175-.114 2.175-1 3a514.367 514.367 0 0 0-4-3c-.16-1.653-.826-2.986-2-4 .073-1.527-.594-2.527-2-3 .073-1.527-.594-2.527-2-3 .683-1.676 2.017-2.343 4-2z"/><path style="opacity:1" fill="#fefffe" d="M130.5 113.5c3.281-.08 6.281.587 9 2a4.934 4.934 0 0 0-3 .5c1.507.837 2.007 2.004 1.5 3.5a25.965 25.965 0 0 0-5-5 2.428 2.428 0 0 0-.5 2c-1.406-.473-2.073-1.473-2-3zM126.5 115.5c1.406.473 2.073 1.473 2 3-1.406-.473-2.073-1.473-2-3z"/><path style="opacity:1" fill="#191919" d="M139.5 115.5c.238 1.904 1.238 3.238 3 4 0 1.333.667 2 2 2 .238 1.904 1.238 3.238 3 4v3c-2.459.19-4.126-.81-5-3 .219 1.175-.114 2.175-1 3a514.367 514.367 0 0 0-4-3c-.838-.342-1.172-1.008-1-2 .073-1.527-.594-2.527-2-3-1.174-1.014-1.84-2.347-2-4a2.428 2.428 0 0 1 .5-2 25.965 25.965 0 0 1 5 5c.507-1.496.007-2.663-1.5-3.5a4.934 4.934 0 0 1 3-.5z"/><path style="opacity:1" d="M147.5 125.5c-.238-1.904-1.238-3.238-3-4-.333-1-1-1.667-2-2 .086-.996-.248-1.829-1-2.5l1.5-.5c3.46 2.127 6.293 4.96 8.5 8.5-1.182 1.768-2.515 1.935-4 .5z"/><path style="opacity:1" fill="#fefffe" d="M128.5 118.5c1.406.473 2.073 1.473 2 3-1.406-.473-2.073-1.473-2-3zM142.5 119.5c1 .333 1.667 1 2 2-1.333 0-2-.667-2-2zM134.5 120.5c1.406.473 2.073 1.473 2 3-1.406-.473-2.073-1.473-2-3zM144.5 121.5c1.762.762 2.762 2.096 3 4-1.762-.762-2.762-2.096-3-4zM142.5 125.5c-1.585-.502-2.085-1.502-1.5-3 1.039.744 1.539 1.744 1.5 3zM-.5 131.5c7.173 40.17 30.506 65.17 70 75h-70v-75z"/><path style="opacity:1" fill="#006532" d="M81.5 135.5a16.603 16.603 0 0 0-.5 7 7.292 7.292 0 0 1 2-3c1.356.88 2.856 1.214 4.5 1-.026-4.64 2.307-6.974 7-7 1.438.219 2.771.719 4 1.5a14.124 14.124 0 0 0 4 5.5c1-1.333 2-1.333 3 0 4.489 6.935 6.989 14.602 7.5 23 1.09-7.673 4.59-13.84 10.5-18.5 9.629-1.936 16.462 1.564 20.5 10.5.667 6 .667 12 0 18-24.385 27.557-54.219 35.724-89.5 24.5-13.694-5.44-25.194-13.94-34.5-25.5-3.31-11.155-.476-20.322 8.5-27.5 11.806-2.674 19.64 1.826 23.5 13.5a132.674 132.674 0 0 1 6-17c3.11-1.173 3.277-.673.5 1.5a6.977 6.977 0 0 1 2.5 3.5c.483-.948.65-1.948.5-3 4.694.137 6.86-2.197 6.5-7 2.168-1.955 4.502-2.621 7-2a7.292 7.292 0 0 0 2-3c.291 2.283-.209 4.45-1.5 6.5.13 1.059.63 1.892 1.5 2.5l1-4c.414.457.914.791 1.5 1a30.968 30.968 0 0 1 2-2z"/><path style="opacity:1" fill="#006632" d="M81.5 135.5c1.125-2.628 3.125-3.461 6-2.5a24.017 24.017 0 0 0-6 2.5z"/><path style="opacity:1" fill="#fefffe" d="M165.5 132.5v74h-70c39.099-9.765 62.432-34.432 70-74z"/></svg>
